dist/images/checkbox.svg

<svg width="20" height="20" viewBox="0 0 20 20" fill="none" xmlns="http://www.w3.org/2000/svg">
<path d="M5.5 10L8.5 13L14.5 7M5.8 19H14.2C15.8802 19 16.7202 19 17.362 18.673C17.9265 18.3854 18.3854 17.9265 18.673 17.362C19 16.7202 19 15.8802 19 14.2V5.8C19 4.11984 19 3.27976 18.673 2.63803C18.3854 2.07354 17.9265 1.6146 17.362 1.32698C16.7202 1 15.8802 1 14.2 1H5.8C4.11984 1 3.27976 1 2.63803 1.32698C2.07354 1.6146 1.6146 2.07354 1.32698 2.63803C1 3.27976 1 4.11984 1 5.8V14.2C1 15.8802 1 16.7202 1.32698 17.362C1.6146 17.9265 2.07354 18.3854 2.63803 18.673C3.27976 19 4.11984 19 5.8 19Z" stroke="#6A994E" stroke-width="1.5" stroke-linecap="round" stroke-linejoin="round"/>
</svg>

<svg width="20" height="20" fill="none" xmlns="http://www.w3.org/2000/svg"><path d="M5.5 10l3 3 6-6M5.8 19h8.4c1.68 0 2.52 0 3.162-.327a3 3 0 001.311-1.311C19 16.72 19 15.88 19 14.2V5.8c0-1.68 0-2.52-.327-3.162a3 3 0 00-1.311-1.311C16.72 1 15.88 1 14.2 1H5.8c-1.68 0-2.52 0-3.162.327a3 3 0 00-1.311 1.311C1 3.28 1 4.12 1 5.8v8.4c0 1.68 0 2.52.327 3.162a3 3 0 001.311 1.311C3.28 19 4.12 19 5.8 19z" stroke="#6A994E" stroke-width="1.5" stroke-linecap="round" stroke-linejoin="round"/></svg>
